X: 16
T: Missa Dio te salvi Gotterello / Kyrie
N: Derived from Mar1004a-Missa_Dio_te_salvi_Gotterello-Kyrie.krn
C: Johannes Martini
%%abc-version 2.0
%%abcx-abcm2ps-target-version 5.9.1 (29 Sep 2008)
%%abc-creator hum2abc beta
%%abcx-conversion-date 2019/02/17 07:19:40
%%abc-edited-by Jesse Rodin
%%abc-edited-by Chris Gage 01-22-2013
%%abcx-initial-encoding-date 2015/03/07/
%%humdrum-veritas 1256106395
%%humdrum-veritas-data 656420728
%%linebreak <none>
%%barnumbers 0
L: 1/4
M: 4/2
Q: 1/2=120
%%staves [1 2 3 4]
V: 1 clef=treble
V: 2 clef=treble-8
V: 3 clef=treble-8
V: 4 clef=bass
K: C
[V:1] A6A2 | 
[V:2] A4c2A2 | 
[V:3] z8 | 
[V:4] A,4F,2F,2 | 
[V:1] G2FEF4 | 
[V:2] B3cd4 | 
[V:3] z4A2A2 | 
[V:4] G,4D,4 | 
[V:1] E2E4D2 | 
[V:2] B2c2A3B | 
[V:3] G2E2F4 | 
[V:4] E,2C,2D,4 | 
[V:1] E4z4 | 
[V:2] cde2d2g2 | 
[V:3] E4G2G2 | 
[V:4] C,2A,,2B,,4 | 
[V:1] z4G2G2 | 
[V:2] f2d4c2 | 
[V:3] A2GFE4 | 
[V:4] A,,4z2E,2 | 
[V:1] A2GFE2D2 | 
[V:2] d2A2c2B2 | 
[V:3] D4G4 | 
[V:4] F,2E,D,C,2G,,2 | 
[V:1] F2E4D2- | 
[V:2] A2c3BA2- | 
[V:3] F2G2A2F2 | 
[V:4] D,2C,4D,2 | 
[V:1] D2^C2D4 | 
[V:2] A2A2F2_B2- | 
[V:3] E4D2z2 | 
[V:4] A,,4D,4 | 
[V:1] z8 | 
[V:2] BAA4G2 | 
[V:3] z4d4 | 
[V:4] C,2A,,2_B,,4 | 
[V:1] z4d4 | 
[V:2] A4z2d2 | 
[V:3] c2A2_B4 | 
[V:4] A,,4G,,4 | 
[V:1] c2A2_B4 | 
[V:2] e2f2d4 | 
[V:3] A4z2d2- | 
[V:4] z2D,2G,4 | 
[V:1] A4G2A2 | 
[V:2] f4d2f2- | 
[V:3] d2c2B2A2 | 
[V:4] F,4G,2F,2 | 
[V:1] B2c4B2- | 
[V:2] f2e2f2g2- | 
[V:3] d2e2c2d2- | 
[V:4] D,2A,4G,2- | 
[V:1] B2A4^G2 | 
[V:2] g2e2e4- | 
[V:3] d2c2B4 | 
[V:4] G,2A,2E,4 | 
[V:1] A8 ||  
[V:2] e8 ||  
[V:3] A8 ||  
[V:4] A,,8 ||  
[V:1]  [K:C] [K:clef=treble][M:3/1]z12 | 
[V:2]  [K:C] [K:clef=treble-8][M:3/1]c4c2d2e2g2 | 
[V:3]  [K:C] [K:clef=treble-8][M:3/1]z12 | 
[V:4]  [K:C] [K:clef=bass][M:3/1]A,4A,2G,4E,2 | 
[V:1] A4A2G4E2 | 
[V:2] f2d3ce4e2 | 
[V:3] z12 | 
[V:4] F,4F,2E,4C,2 | 
[V:1] F4E2E4C2- | 
[V:2] d4c2c4e2- | 
[V:3] A4A2G4A2 | 
[V:4] D,4A,,2C,4A,,2- | 
[V:1] C2D4G4G2 | 
[V:2] e2d4e4d2 | 
[V:3] F4F2E3FG2 | 
[V:4] A,,2B,,4C,4B,,2 | 
[V:1] F2D4C2F4 | 
[V:2] c2d2B2e2c3B | 
[V:3] A4^G2A4=G2 | 
[V:4] A,,2B,,4A,,4C,2- | 
[V:1] E4D2E6 | 
[V:2] c2A2B2A6 | 
[V:3] E2F4E4E2 | 
[V:4] C,2D,4A,,4A,,2 | 
[V:1] [M:4/2]z8 | 
[V:2] [M:4/2]z8 | 
[V:3] [M:4/2]G4A2F2 | 
[V:4] [M:4/2]E,4F,2D,2 | 
[V:1] G4A2F2 | 
[V:2] z2c2A2B2 | 
[V:3] E4D4 | 
[V:4] C,4z2D,2 | 
[V:1] E2G3FED | 
[V:2] c2BAG4 | 
[V:3] C4D4 | 
[V:4] E,2C,2B,,4 | 
[V:1] C8 ||  
[V:2] A8 ||  
[V:3] E8 ||  
[V:4] A,,8 ||  
[V:1]  [K:C] [K:clef=treble][M:4/2]z8 | 
[V:2]  [K:C] [K:clef=treble-8][M:4/2]d2c2d2cB | 
[V:3]  [K:C] [K:clef=treble-8][M:4/2]z8 | 
[V:4]  [K:C] [K:clef=bass][M:4/2]D,2E,2D,2F,2- | 
[V:1] A2G2A2GF | 
[V:2] A2B2A2B2 | 
[V:3] z8 | 
[V:4] F,2G,2F,3D, | 
[V:1] E2z2E2F2 | 
[V:2] c2d2c2d2 | 
[V:3] A2G2A2GF | 
[V:4] C,2B,,2A,,2D,2 | 
[V:1] G2FED2F2- | 
[V:2] e2A2B2AG | 
[V:3] E2F2G2F2 | 
[V:4] C,2D,2G,,2z2 | 
[V:1] FED4^C2 | 
[V:2] (3:2:4c4A2G4G2 | 
[V:3] D2F2E4 | 
[V:4] z8 | 
[V:1] [M:3/1]D6z2z4 | 
[V:2] [M:3/1]A3GF2E4A2 | 
[V:3] [M:3/1]D2z2z4z4 | 
[V:4] [M:3/1]D,4D,2C,4C,2 | 
[V:1] F4D2E4E2 | 
[V:2] A3FG2A6 | 
[V:3] d4d2c4c2 | 
[V:4] D,3C,B,,2A,,4A,,2 | 
[V:1] F3ED2C4z2 | 
[V:2] z4z2f3ec2 | 
[V:3] d4B2A6 | 
[V:4] D,4D,2F,4F,2 | 
[V:1] A6G6 | 
[V:2] d2f3ed4^c2 | 
[V:3] z12 | 
[V:4] D,4F,2G,2E,4 | 
[V:1] F4_B2A2G3F | 
[V:2] d2f2g2e4d2- | 
[V:3] d4d2c4B2 | 
[V:4] D,4G,,2A,,2C,2D,2 | 
[V:1] F4E2F4z2 | 
[V:2] d2c4A4d2 | 
[V:3] A2G4F6 | 
[V:4] F,2C,4D,4D,2 | 
[V:1] G3A_B2A2F2E2- | 
[V:2] B2e2d4B2c2 | 
[V:3] z4z4z2G2- | 
[V:4] E,4G,2F,2D,2C,2- | 
[V:1] E2D2C2E2F2G2- | 
[V:2] g3fedc2d2e2- | 
[V:3] GA_B2A4F2E2- | 
[V:4] C,2G,,2A,,4D,2C,2- | 
[V:1] G2F2D2E3DD2- | 
[V:2] e2A2B2c2A2G2 | 
[V:3] E2F2G4F2D2 | 
[V:4] C,2D,2G,,2C,2D,2B,,2 | 
[V:1] D2^C2D8 |]  
[V:2] A4A8 |]  
[V:3] E4D8 |]  
[V:4] A,,4D,8 |]  



